X: 863
T: Missa O sacrum convivium Agnus II
C: Giovanni Perluigi da Palestrina
L: 1/4
M: 4/2
N: Derived from Agnus_II_75.krn
V: 1 clef=treble
V: 2 clef=treble
V: 3 clef=treble-8
V: 4 clef=treble-8
V: 5 clef=bass
K: F
[V:1] z8 | 
[V:2] z8 | 
[V:3] z8 | 
[V:4] B6c2 | 
[V:5] z8 | 
[V:1] F8 | 
[V:2] B,6C2 | 
[V:3] z8 | 
[V:4] d2>c2B2A2 | 
[V:5] z8 | 
[V:1] F8 | 
[V:2] D2>C2B,2A,2 | 
[V:3] z2B4c2 | 
[V:4] Bcdef2F2 | 
[V:5] z8 | 
[V:1] F8 | 
[V:2] B,2>C2DEF2- | 
[V:3] d2>c2B2A2 | 
[V:4] z2B4c2 | 
[V:5] z8 | 
[V:1] G8 | 
[V:2] F2EDE2DE | 
[V:3] G8 | 
[V:4] dcBAB4 | 
[V:5] z8 | 
[V:1] A2c4=B2 | 
[V:2] FGA4G2 | 
[V:3] F4z4 | 
[V:4] c4d4 | 
[V:5] z2F,4G,2 | 
[V:1] c4c4- | 
[V:2] z2F4G2 | 
[V:3] F2>G2A2G2 | 
[V:4] c8- | 
[V:5] A,2>G,2F,2E,2 | 
[V:1] c4c4 | 
[V:2] A2>G2F2E2 | 
[V:3] FGABc4 | 
[V:4] c4z4 | 
[V:5] F,2>G,2A,B,C2- | 
[V:1] d8 | 
[V:2] D8 | 
[V:3] G8 | 
[V:4] g8 | 
[V:5] C2=B,A,B,4 | 
[V:1] e4z4 | 
[V:2] C2E2F3G | 
[V:3] z8 | 
[V:4] g4a3g | 
[V:5] C2>B,2A,G,F,2- | 
[V:1] c4d4 | 
[V:2] ABc4=B2 | 
[V:3] z4f4 | 
[V:4] f2e2d4 | 
[V:5] F,2C,2z4 | 
[V:1] e4c2f2- | 
[V:2] c4F4 | 
[V:3] g4a4 | 
[V:4] c4z4 | 
[V:5] z8 | 
[V:1] fedcd2c2- | 
[V:2] A2B2>A2GF | 
[V:3] f2g2>f2ed | 
[V:4] z8 | 
[V:5] z8 | 
[V:1] cBAGABc2- | 
[V:2] G2cBAGA2- | 
[V:3] e2f2>e2dc | 
[V:4] z8 | 
[V:5] z8 | 
[V:1] c2=B2c4- | 
[V:2] AGF4E2 | 
[V:3] d4c3B | 
[V:4] f4g4 | 
[V:5] z8 | 
[V:1] c4z4 | 
[V:2] F4D4 | 
[V:3] AFc4=B2 | 
[V:4] a4g4 | 
[V:5] F,4G,4 | 
[V:1] z8 | 
[V:2] C2C2D4 | 
[V:3] c2F2A2B2- | 
[V:4] e2f2>e2dc | 
[V:5] A,4F,2G,2- | 
[V:1] z8 | 
[V:2] G,2G2G2A2- | 
[V:3] BAGFG2c2- | 
[V:4] d2c2>B2AG | 
[V:5] G,F,E,D,E,2F,2- | 
[V:1] z8 | 
[V:2] AGFEDEF2- | 
[V:3] c2d4B2 | 
[V:4] A2B2>A2GF | 
[V:5] F,E,D,C,D,4 | 
[V:1] z2G2ABcA | 
[V:2] F2E2F4 | 
[V:3] c4c4 | 
[V:4] G4F2c2 | 
[V:5] C,4F,4 | 
[V:1] B2A2G4 | 
[V:2] z2F2GABG | 
[V:3] z8 | 
[V:4] defde2g2 | 
[V:5] z8 | 
[V:1] c4defd | 
[V:2] A2c2B2AB | 
[V:3] z8 | 
[V:4] f2>e2d4 | 
[V:5] z8 | 
[V:1] e2f4e2 | 
[V:2] cBAGFGA2- | 
[V:3] z4z2c2 | 
[V:4] c2d4A2 | 
[V:5] z8 | 
[V:1] d2c4A2 | 
[V:2] A2G2A4 | 
[V:3] d2e2f3e | 
[V:4] B2c2F4 | 
[V:5] z4z2F,2 | 
[V:1] BcdBc2d2- | 
[V:2] z8 | 
[V:3] d2g2fedc | 
[V:4] z2G2c2Bc | 
[V:5] G,A,B,G,A,2B,2- | 
[V:1] d2c2B2G2 | 
[V:2] z2F2GABG | 
[V:3] B2c2d2B2 | 
[V:4] def4e2 | 
[V:5] B,2A,2G,4 | 
[V:1] c4z2c2- | 
[V:2] A2c2B2A2 | 
[V:3] z2c2defd | 
[V:4] f3e/ f/g2c2 | 
[V:5] F,2A,2G,2F,2 | 
[V:1] c2=B2c4 | 
[V:2] G2F2G4 | 
[V:3] e2f2>e2ed/ e/ | 
[V:4] z4z2c2 | 
[V:5] C2D2C4 | 
[V:1] A2d2>c2c2- | 
[V:2] z2B2G2A2- | 
[V:3] f2B2c2F2 | 
[V:4] defde2f2 | 
[V:5] z8 | 
[V:1] c2=B2c4 | 
[V:2] A2GFE2C2 | 
[V:3] z2G2ABcA | 
[V:4] d2d2c2e2 | 
[V:5] z4z2C,2 | 
[V:1] z4z2c2 | 
[V:2] F4G2A2- | 
[V:3] B2A2G2c2- | 
[V:4] d2d2cBAG | 
[V:5] D,E,F,D,E,2F,2 | 
[V:1] defdedcB | 
[V:2] AGF4E2 | 
[V:3] c=B=B2c4- | 
[V:4] F4G4 | 
[V:5] D,4C,4 | 
[V:1] A2>B2c2d2- | 
[V:2] F8- | 
[V:3] c4A3A | 
[V:4] F8- | 
[V:5] F,2F,4D,2 | 
[V:1] d2c2B4 | 
[V:2] F4-F4- | 
[V:3] B2c2d4 | 
[V:4] F4-F4- | 
[V:5] B,,2A,,2B,,4 | 
[V:1] A8 |]  
[V:2] F8 |]  
[V:3] c8 |]  
[V:4] F8 |]  
[V:5] F,8 |]  

